icons/link-unlink.svg

<svg viewBox="0 0 24 24" fill="currentColor" xmlns="http://www.w3.org/2000/svg">
    <path d="M17 17H22V19H19V22H17V17ZM7 7H2V5H5V2H7V7ZM18.364 15.5355L16.9497 14.1213L18.364 12.7071C20.3166 10.7545 20.3166 7.58866 18.364 5.63604C16.4113 3.68342 13.2455 3.68342 11.2929 5.63604L9.87868 7.05025L8.46447 5.63604L9.87868 4.22183C12.6123 1.48816 17.0445 1.48816 19.7782 4.22183C22.5118 6.9555 22.5118 11.3877 19.7782 14.1213L18.364 15.5355ZM15.5355 18.364L14.1213 19.7782C11.3877 22.5118 6.9555 22.5118 4.22183 19.7782C1.48816 17.0445 1.48816 12.6123 4.22183 9.87868L5.63604 8.46447L7.05025 9.87868L5.63604 11.2929C3.68342 13.2455 3.68342 16.4113 5.63604 18.364C7.58866 20.3166 10.7545 20.3166 12.7071 18.364L14.1213 16.9497L15.5355 18.364ZM14.8284 7.75736L16.2426 9.17157L9.17157 16.2426L7.75736 14.8284L14.8284 7.75736Z"/>
</svg>

<svg xmlns="http://www.w3.org/2000/svg" viewBox="0 0 24 24">
    <g>
        <path fill="none" d="M0 0h24v24H0z"/>
        <path d="M17 17h5v2h-3v3h-2v-5zM7 7H2V5h3V2h2v5zm11.364 8.536L16.95 14.12l1.414-1.414a5 5 0 1 0-7.071-7.071L9.879 7.05 8.464 5.636 9.88 4.222a7 7 0 0 1 9.9 9.9l-1.415 1.414zm-2.828 2.828l-1.415 1.414a7 7 0 0 1-9.9-9.9l1.415-1.414L7.05 9.88l-1.414 1.414a5 5 0 1 0 7.071 7.071l1.414-1.414 1.415 1.414zm-.708-10.607l1.415 1.415-7.071 7.07-1.415-1.414 7.071-7.07z"/>
    </g>
</svg>
